src/img/eyeopener/check.svg

<svg width="31" height="29" viewBox="0 0 31 29" fill="none" xmlns="http://www.w3.org/2000/svg">
<g clip-path="url(#clip0_1079_2468)">
<path d="M28.6912 0.774424C28.2491 1.03232 27.4496 1.5389 26.904 1.89811C26.3585 2.25732 25.5119 2.84679 25.0228 3.206C24.5337 3.57442 23.6871 4.22837 23.1416 4.67048C22.596 5.11258 21.6083 5.96916 20.9311 6.56785C20.2538 7.16653 18.984 8.37311 18.1092 9.24811C17.2344 10.1323 16.0586 11.3481 15.5131 11.956C14.9675 12.5639 14.0833 13.6047 13.5378 14.2586C13.0016 14.9218 12.4184 15.6494 12.2491 15.8705C12.0704 16.1007 11.5625 16.7915 11.1204 17.4086C10.6689 18.0257 9.98221 19.0297 9.59655 19.6376L8.89108 20.7521C8.53365 20.006 8.1668 19.2507 7.84699 18.5876C7.51777 17.9244 7.02865 17.0586 6.75587 16.6626C6.48308 16.2573 6.04099 15.7415 5.78702 15.5113C5.49543 15.2534 5.1474 15.0415 4.89343 14.9678C4.57362 14.8757 4.33846 14.8757 3.9528 14.9494C3.67062 14.9955 3.09683 15.2073 2.68296 15.4007C2.23146 15.6218 1.61065 16.0363 1.13093 16.4415C0.688834 16.8192 0.321991 17.1784 0.303178 17.2521C0.293772 17.335 0.491303 17.4915 0.820522 17.6665C1.12152 17.8139 1.66708 18.2192 2.03393 18.5876C2.40077 18.9376 2.8899 19.5271 3.12505 19.8771C3.3508 20.2271 3.72705 20.8534 3.9434 21.2586C4.15974 21.6639 4.65827 22.7047 5.04393 23.5613C5.43899 24.4271 5.93752 25.5784 6.16327 26.1402C6.37961 26.7021 6.63358 27.3744 6.71824 27.6415C6.8029 27.8994 6.91577 28.1389 6.9628 28.1665C7.00983 28.1942 7.33905 27.9915 7.69649 27.7244C8.04452 27.4573 8.68415 26.9876 9.12624 26.6836C9.56833 26.3797 10.2362 25.9284 10.6218 25.6797C11.3085 25.2192 11.3085 25.2192 11.9199 24.0218C12.2585 23.3586 12.8605 22.2626 13.265 21.581C13.6695 20.8994 14.2621 19.9231 14.5819 19.4165C14.9111 18.91 15.5131 17.9981 15.927 17.3902C16.3408 16.7823 17.1874 15.6034 17.8082 14.7652C18.429 13.9271 19.4637 12.5823 20.1221 11.7718C20.7712 10.9613 21.6366 9.90206 22.0598 9.42311C22.4737 8.94416 23.2826 8.03232 23.8564 7.39679C24.4302 6.76127 25.6812 5.49943 26.6313 4.58758C27.5813 3.66653 28.7947 2.57969 29.3215 2.16521L30.2903 1.40995C29.7259 0.553372 29.5472 0.304688 29.5284 0.304688C29.5096 0.304688 29.1333 0.51653 28.6912 0.774424Z" fill="#004583"/>
</g>
<defs>
<clipPath id="clip0_1079_2468">
<rect width="30.1" height="28" fill="white" transform="translate(0.189575 0.304688)"/>
</clipPath>
</defs>
</svg>

<svg xmlns="http://www.w3.org/2000/svg" width="31" height="29" fill="none"><g clip-path="url(#a)"><path fill="#004583" d="M28.691.774a48 48 0 0 0-3.668 2.432 81 81 0 0 0-1.881 1.464 85 85 0 0 0-2.21 1.898 78 78 0 0 0-2.823 2.68c-.875.884-2.05 2.1-2.596 2.708s-1.43 1.649-1.975 2.303a129 129 0 0 0-1.289 1.611c-.179.23-.687.922-1.129 1.539a49 49 0 0 0-1.523 2.229l-.706 1.114c-.357-.746-.724-1.501-1.044-2.164-.33-.664-.818-1.53-1.091-1.925-.273-.406-.715-.921-.969-1.152-.292-.258-.64-.47-.894-.543-.32-.092-.555-.092-.94-.019-.282.046-.856.258-1.27.452-.452.22-1.072.635-1.552 1.04-.442.378-.809.737-.828.811-.01.083.188.24.518.415.3.147.846.552 1.213.92.367.35.856.94 1.091 1.29.226.35.602.976.818 1.382.217.405.715 1.446 1.1 2.302a76 76 0 0 1 1.12 2.58c.217.561.47 1.233.555 1.5.085.258.198.498.245.526.047.027.376-.176.733-.443.349-.267.988-.736 1.43-1.04a75 75 0 0 1 1.496-1.004c.687-.46.687-.46 1.298-1.658.338-.663.94-1.76 1.345-2.441.404-.682.997-1.658 1.317-2.165.33-.506.931-1.418 1.345-2.026s1.26-1.787 1.881-2.625a102 102 0 0 1 2.314-2.993 83 83 0 0 1 1.938-2.349 155 155 0 0 1 1.796-2.026c.574-.636 1.825-1.898 2.775-2.81.95-.92 2.164-2.007 2.69-2.422l.97-.755c-.565-.857-.744-1.105-.763-1.105-.018 0-.395.212-.837.47"/></g><defs><clipPath id="a"><path fill="#fff" d="M.19.305h30.1v28H.19z"/></clipPath></defs></svg>
